X:1
T: Air by Haydn
C:
R:Jig
Q:180
K:G
M:6/8
L:1/16
D2|D2G2B2 d4d2|d2c2B2 A4c2|B2G2d2 c2A2e2|G6 F4D2|D2G2B2 d4d2|d2c2B2 A4c2|c2B2G2 B2A2F2|A6 G4D2|
D2G2B2 d4d2|d2c2B2 A4c2|B2G2d2 c2A2e2|G6 F4D2|D2G2B2 d4d2|d2c2B2 A4c2|c2B2G2 B2A2F2|A6 G4G2|
G2B2d2 g2g2g2|g2f2e2 d4d2|e2c2A2 A2c2e2|G6 F4A2|A2B2^c2 d2e2f2|B2^c2d2 e2f2g2|f2e2d2 e2d2^c2|d2e2d2 d2f2g2|
g2d2B2 G2B2d2|d2c2B2 A4A2|B2c2d2 e2c2A2|G6 F4D2|D2G2B2 d2d2d2|d2c2B2 A4c2|c2B2G2 B2A2F2|A6 G4||
